apps/22/dropbox.svg

<?xml version="1.0" encoding="UTF-8" standalone="no"?>
<!-- Created with Inkscape (http://www.inkscape.org/) -->

<svg
   xmlns:dc="http://purl.org/dc/elements/1.1/"
   xmlns:cc="http://creativecommons.org/ns#"
   xmlns:rdf="http://www.w3.org/1999/02/22-rdf-syntax-ns#"
   xmlns:svg="http://www.w3.org/2000/svg"
   xmlns="http://www.w3.org/2000/svg"
   xmlns:sodipodi="http://sodipodi.sourceforge.net/DTD/sodipodi-0.dtd"
   xmlns:inkscape="http://www.inkscape.org/namespaces/inkscape"
   id="svg13094"
   height="22"
   width="22"
   version="1.1"
   inkscape:version="0.48.3.1 r9886"
   sodipodi:docname="dropboxstatus-idle.svg">
  <defs
     id="defs7" />
  <sodipodi:namedview
     pagecolor="#ffffff"
     bordercolor="#666666"
     borderopacity="1"
     objecttolerance="10"
     gridtolerance="10"
     guidetolerance="10"
     inkscape:pageopacity="0"
     inkscape:pageshadow="2"
     inkscape:window-width="1920"
     inkscape:window-height="1032"
     id="namedview5"
     showgrid="true"
     inkscape:zoom="29.5"
     inkscape:cx="12.618778"
     inkscape:cy="10.744323"
     inkscape:window-x="-7"
     inkscape:window-y="25"
     inkscape:window-maximized="1"
     inkscape:current-layer="svg13094">
    <inkscape:grid
       type="xygrid"
       id="grid2982"
       empspacing="5"
       visible="true"
       enabled="true"
       snapvisiblegridlinesonly="true" />
  </sodipodi:namedview>
  <metadata
     id="metadata13099">
    <rdf:RDF>
      <cc:Work
         rdf:about="">
        <dc:format>image/svg+xml</dc:format>
        <dc:type
           rdf:resource="http://purl.org/dc/dcmitype/StillImage" />
        <dc:title />
      </cc:Work>
    </rdf:RDF>
  </metadata>
  <path
     inkscape:connector-curvature="0"
     style="fill:#27303a;fill-opacity:0.753280819999999968"
     d="M 6.5,2 2,5.5859375 6.5,9.207031 11,5.5859375 6.5,2 z M 11,5.5859375 15.5,9.207031 20,5.5859375 15.5,2 11,5.5859375 z M 15.5,9.207031 11,12.792969 6.5,9.207031 2,12.792969 11,20 20,12.792969 15.5,9.207031 z"
     id="path3775" />
  <path
     style="font-size:medium;font-style:normal;font-variant:normal;font-weight:normal;font-stretch:normal;text-indent:0;text-align:start;text-decoration:none;line-height:normal;letter-spacing:normal;word-spacing:normal;text-transform:none;direction:ltr;block-progression:tb;writing-mode:lr-tb;text-anchor:start;baseline-shift:baseline;color:#000000;fill:#f1f3f5;fill-opacity:0.90288714000000003;fill-rule:nonzero;stroke:none;stroke-width:2;marker:none;visibility:visible;display:inline;overflow:visible;enable-background:accumulate;font-family:Sans;-inkscape-font-specification:Sans"
     d="M 6.5,0.59375 5.8125,1.125 l -4.5,3.59375 -1.0625,0.875 1.0625,0.84375 3.4375,2.75 -3.4375,2.75 -1.0625,0.84375 1.0625,0.875 9,7.1875 0.6875,0.5625 0.6875,-0.5625 9,-7.1875 1.0625,-0.875 L 20.6875,11.9375 17.25,9.1875 20.6875,6.4375 21.75,5.59375 20.6875,4.71875 16.1875,1.125 15.5,0.59375 14.8125,1.125 11,4.15625 7.1875,1.125 z M 6.5,2 11,5.59375 15.5,2 20,5.59375 15.5,9.21875 20,12.78125 11,20 2,12.78125 6.5,9.21875 2,5.59375 z"
     id="path2990"
     inkscape:connector-curvature="0"
     sodipodi:nodetypes="cccccccccccccccccccccccccccccccccccc" />
</svg>

<?xml version="1.0" encoding="UTF-8"?>
<svg id="a" width="22" height="22" version="1.1" xmlns="http://www.w3.org/2000/svg" xmlns:cc="http://creativecommons.org/ns#" xmlns:dc="http://purl.org/dc/elements/1.1/" xmlns:rdf="http://www.w3.org/1999/02/22-rdf-syntax-ns#">
	<metadata id="c">
		<rdf:RDF>
			<cc:Work rdf:about="">
				<dc:format>image/svg+xml</dc:format>
				<dc:type rdf:resource="http://purl.org/dc/dcmitype/StillImage"/>
				<dc:title/>
			</cc:Work>
		</rdf:RDF>
	</metadata>
	<defs id="e">
		<style id="current-color-scheme" type="text/css">.ColorScheme-Text {color:#090d11;}.ColorScheme-Background{color:#ffffff;}</style>
	</defs>
	<path id="d" class="ColorScheme-Text" d="M 6.5,2 2,5.5859 6.5,9.207 11,5.5859 Z M 11,5.5859 15.5,9.207 20,5.5859 15.5,2 Z M 15.5,9.207 11,12.7929 6.5,9.207 2,12.7929 l 9,7.207 9,-7.207 z" style="fill-opacity:.75;fill:currentColor"/>
	<path id="b" class="ColorScheme-Background" d="m6.5 0.5938-0.6875 0.53125-4.5 3.5938-1.0625 0.875 1.0625 0.84375 3.4375 2.75-3.4375 2.75-1.0625 0.84375 1.0625 0.875 9 7.1875 0.6875 0.5625 0.6875-0.5625 9-7.1875 1.0625-0.875-1.0625-0.84375-3.4375-2.75 3.4375-2.75 1.0625-0.84375-1.0625-0.875-4.5-3.5938-0.6875-0.53125-0.6875 0.53125-3.8125 3.0312-3.8125-3.0312zm0 1.4062 4.5 3.5938 4.5-3.5938 4.5 3.5938-4.5 3.625 4.5 3.5625-9 7.2188-9-7.2188 4.5-3.5625-4.5-3.625z" style="fill-opacity:.5;fill:currentColor"/>
</svg>
